X:1
T:Newmarket Polka, The
S:Denis Brooks
R:polka
I:speed 450
M:2/4
K:G
A|{c}B2.d2 d2e2|d2B2 {c}BABc|d2.B2 A2.B2 |d2.B2 G3A|{c}B2.d2 d2e2|d2B2 {c}BABc|d2G2 {c}B2A2|A2G2 {c}G3:|
B|d2g2 {a} g2.ag|f2.e2 e4|{f} e2.d2 ^c2.d2|e2.d2|B3c|d2g2 {a} g2.ag|f2.e2 e3^d|d2G2 {c}B2.A2|A2G2 {c}G3:|
<end>
<start>
